X:269
T: ES FUHR EIN MANN DEN RHEIN AUS
N: E0148
O: Europa, Mitteleuropa, Deutschland
R: erzaehlendes Volks - Lied, Scherz, Schwank
M: 4/4
L: 1/8
K: D
D2 | A2A2B2B2 | A4A2
G2 | F2D2E4 | D4z2
D2 | A2A2B2c2 | d2Bcd2
c2 | B2A2B4 | A4z2
A2 | d3cB2A2 | d3cB2
A2 | A2A2A2G2 | F4F2
G2 | FEFDE4 | D3EF2
G2 | F2D2E4 | D4z2

